src/assets/tokens/FRAX.svg

<svg width="82" height="82" viewBox="0 0 82 82" fill="none" xmlns="http://www.w3.org/2000/svg">
<path d="M41 81.3398C18.9086 81.3398 1 63.4312 1 41.3398C1 19.2485 18.9086 1.33984 41 1.33984C63.0914 1.33984 81 19.2485 81 41.3398C81 63.4312 63.0914 81.3398 41 81.3398Z" fill="black" stroke="black" stroke-width="1.2373" stroke-miterlimit="11.3386"/>
<path d="M63.0668 19.091C64.7534 20.8619 66.1449 22.3518 66.1589 22.3799C66.173 22.422 64.655 23.9118 62.7858 25.6827C60.9165 27.4677 59.2861 29.0278 59.1737 29.1262L58.9628 29.3229L59.3423 29.9554C62.6733 35.4649 63.362 42.0988 61.2678 48.1986C60.8743 49.3511 60.1997 50.8268 59.6234 51.7966C59.3423 52.2745 59.2158 52.5837 59.2439 52.6399C59.272 52.6961 60.9727 54.4951 63.0247 56.6455C65.0767 58.7818 66.7492 60.5668 66.7773 60.5949C66.7914 60.6371 61.043 66.1887 60.4948 66.6385L60.284 66.8212L57.0373 63.434C55.2524 61.5647 53.5798 59.8078 53.3269 59.5408L52.849 59.0629L52.3992 59.344C50.1083 60.8057 47.4238 61.8177 44.4583 62.3518C42.9685 62.6188 40.1294 62.6891 38.5412 62.4923C35.4772 62.1409 32.4414 61.1149 29.9537 59.6111L29.3072 59.2175L28.6185 59.8922C27.1146 61.3539 21.4927 66.6947 21.4365 66.7228C21.3803 66.7509 15.2102 60.2998 15.2243 60.2154C15.2383 60.1733 19.4688 56.1114 22.0549 53.6799L22.9122 52.8648L22.5187 52.2182C19.2158 46.7228 18.5271 40.0608 20.6635 33.9189C20.9727 33.0194 21.9144 30.9955 22.4625 30.0679L22.7295 29.604L19.1174 25.8233C17.1357 23.7572 15.5194 22.0285 15.5335 21.9863C15.5897 21.8458 21.9144 15.8725 21.9987 15.8725C22.0549 15.8725 23.6431 17.4888 25.5405 19.4846C27.4379 21.4663 29.012 23.0967 29.0542 23.1107C29.0823 23.1248 29.265 23.0404 29.4337 22.9139C29.9115 22.5907 31.1203 21.9301 31.7949 21.6209C33.8469 20.6792 35.7583 20.103 37.979 19.7797C39.1315 19.6111 42.589 19.583 43.6571 19.7376C46.2151 20.103 48.3093 20.7355 50.4456 21.8036C51.064 22.0988 51.7808 22.4923 52.0619 22.661L52.5679 22.9702L53.1441 22.408C53.4534 22.0988 54.8588 20.7776 56.2503 19.4424C57.6417 18.1213 59.0612 16.772 59.3985 16.4347L60.017 15.8303L63.0668 19.091ZM39.4688 28.2548C37.2341 28.5218 35.2383 29.2808 33.3971 30.5738C32.4555 31.2344 31.05 32.6399 30.3894 33.5816C26.6368 38.8943 27.3536 46.1184 32.076 50.5457C36.1097 54.3124 41.9425 55.1557 46.8476 52.6539C50.3894 50.8409 52.8912 47.5239 53.6923 43.5464C53.9453 42.2815 53.9453 39.9203 53.6923 38.6694C53.4534 37.4326 53.1301 36.5471 52.5257 35.3103C50.1083 30.4473 44.8659 27.6083 39.4688 28.2548Z" fill="white"/>
</svg>

<svg width="82" height="82" fill="none" xmlns="http://www.w3.org/2000/svg"><path d="M41 81.34c-22.091 0-40-17.909-40-40 0-22.092 17.909-40 40-40s40 17.909 40 40-17.909 40-40 40z" fill="#000" stroke="#000" stroke-width="1.237" stroke-miterlimit="11.339"/><path d="M63.067 19.091c1.686 1.77 3.078 3.26 3.092 3.289.014.042-1.504 1.532-3.373 3.303-1.87 1.785-3.5 3.345-3.612 3.443l-.211.197.38.632c3.33 5.51 4.019 12.144 1.925 18.244-.394 1.152-1.068 2.628-1.645 3.598-.28.478-.407.787-.38.843.029.056 1.73 1.855 3.782 4.005 2.052 2.137 3.724 3.922 3.752 3.95.014.042-5.734 5.594-6.282 6.043l-.211.183-3.247-3.387c-1.785-1.87-3.457-3.626-3.71-3.893l-.478-.478-.45.281c-2.29 1.462-4.975 2.474-7.94 3.008-1.49.267-4.33.337-5.918.14-3.064-.351-6.1-1.377-8.587-2.88l-.647-.395-.688.675c-1.504 1.462-7.126 6.803-7.183 6.83-.056.029-6.226-6.422-6.212-6.507.014-.042 4.245-4.104 6.83-6.535l.858-.815-.393-.647c-3.303-5.495-3.992-12.157-1.855-18.3.309-.899 1.25-2.922 1.798-3.85l.268-.464-3.613-3.78c-1.981-2.067-3.598-3.796-3.584-3.838.057-.14 6.381-6.114 6.466-6.114.056 0 1.644 1.617 3.542 3.613 1.897 1.981 3.471 3.612 3.513 3.626.028.014.211-.07.38-.197.477-.323 1.686-.984 2.36-1.293 2.053-.942 3.964-1.518 6.185-1.841 1.153-.169 4.61-.197 5.678-.042 2.558.365 4.652.997 6.789 2.066.618.295 1.335.688 1.616.857l.506.31.576-.563c.31-.31 1.715-1.63 3.106-2.966 1.392-1.32 2.811-2.67 3.148-3.007l.619-.605 3.05 3.261zm-23.598 9.164a13.02 13.02 0 0 0-6.072 2.319c-.941.66-2.347 2.066-3.008 3.008-3.752 5.312-3.035 12.536 1.687 16.964 4.034 3.766 9.867 4.61 14.772 2.108 3.541-1.813 6.043-5.13 6.844-9.108.253-1.264.253-3.626 0-4.877-.239-1.236-.562-2.122-1.166-3.359a12.896 12.896 0 0 0-13.057-7.055z" fill="#fff"/></svg>
